X: 1
T: Annas Visa (H1)
C: Leif G\"oras (~1980)
R: waltz
Z: 2019 John Chambers <jc:trillian.mit.edu>
M: 3/4
L: 1/8
K: A
c2 |\
"A"E4 E2 | "E7"E2 E3 D | "A" C2 E2 A2 | "A"c4 AG |\
"D"F2 B2 c2 | "Bm"d3 c BA | "E7"A2 G3 F | F2 E2 c2 ||
"A"E4 E2 | "E7"E2 E3 D | "A" C2 E2 A2 | c2 d2 e2 |\
"D"d2 F3 A | "E7"G2 A2 B2 | "A"A6- | A4 :|
|: EE |\
"A"Ec c2 EE | "A" EA Ac ce | "D"e2 d3 c | "Bm"c2 B3 A |\
"E"A2 G3 F | "E7"F2 E2 d2 | "D"d4 c2 | "A"c4 cd ||
"A"e2 E2 A2 | "A7"c2 d2 e2 | "D"f2 d2 c2 | "Bm"B2 c2 d2 |\
"A"c2 E3 A | "E7"G2 A2 B2 |1 "A"A6- | A4 :|
